!!!COM:	Pierre de la Rue
**kern	**kern
*part2	*part1
*staff2	*staff1
*clefGv2	*clefG2
*k[b-]	*k[b-]
*M2/1	*M2/1
=1-	=1-
0f	1r
.	1f
=2	=2
1f	2f
.	2.a
[1f	.
.	4b-
.	4cc
.	4a
=3	=3
1f]	2dd
.	1cc
[1e	.
.	4b-
.	4a
=4	=4
1e]	2g
.	1cc
[1f	.
.	[2a
=5	=5
1f]	2a]
.	1dd
2d	.
2e	[2cc
=6	=6
1f	2cc]
.	2ff
1g	2ee
.	2dd
=7	=7
1c	4ee
.	4dd
.	4cc
.	4b-
2r	1a
2f	.
=8	=8
2e	2r
2c	2cc
2d	2b-
2B-	2g
=9	=9
2c	2a
4B-	2f
4A	.
2.G	2g
.	4f
4A	4e
=10	=10
4B-	2.d
4c	.
2.d	.
.	4e
.	4f
4e	4g
2f	2a
=11	=11
2e	2g
4d	1cc
4c	.
1d	.
.	2b-
=12	=12
2r	0cc
4c	.
4d	.
2e	.
[2f	.
=13	=13
2f]	1r
4e	.
4d	.
2e	[1cc
[2f	.
=14	=14
2f]	1cc]
2.F	.
.	1cc
4G	.
4A	.
4B-	.
=15	=15
4c	0cc
4d	.
4e	.
8dL	.
8eJ	.
2f	.
[2e	.
=16	=16
2e]	0b-
4d	.
4c	.
1d	.
=17	=17
0c	2.cc
.	4b-
.	2a
.	[2g
=18	=18
2r	2g]
2c	2e
2d	2f
2e	2g
=19	=19
2c	2e
2e	2g
1d	2a
.	2b-
=20	=20
0c	2cc
.	4b-
.	4a
.	4g
.	4a
.	4b-
.	4cc
=21	=21
2r	2b-
2c	1a
2d	.
2e	2g
=22	=22
2f	1.a
4e	.
4d	.
4c	.
4d	.
4e	4g
4f	4f
=23	=23
2e	4g
.	4f
1d	4e
.	4d
.	1e
2c	.
=24	=24
1d	2r
.	2.d
1f	.
.	4e
.	4f
.	4g
=25	=25
1.f	4a
.	4b-
.	4cc
.	8b-L
.	8ccJ
.	2dd
2f	[2cc
=26	=26
1e	2cc]
.	4b-
.	4a
1e	1g
=27	=27
2f	2r
2.F	2.a
4G	4b-
4A	4cc
4F	4a
=28	=28
2G	2b-
2F	2a
2r	2r
[2c	[2a
=29	=29
4c]	4a]
4d	4b-
4e	4cc
4c	4a
4d	4b-
4c	4a
4B-	4g
4A	4f
=30	=30
2G	2g
2.A	2.f
4B-	4g
4c	4a
4A	4f
=31	=31
4B-	4g
4A	4f
4G	4e
4F	4d
1G	2e
.	4f
.	4e
=32	=32
0F	0f
==	==
*-	*-
